X:044
%%topmargin 3cm
T:Fred Wilson's
B:The Nelson Music Collection
N:Newton F. Tolman & K. Dep. Gilbert
Z:Transcribed by Ralph Palmer
R:Hornpipe
L:1/16
M:2/4
K:F
cA | FAcA GBdB | Acfg afcA | Bdfb Acfa | ((3gag) ((3fed) ((3cdc) ((3BAG) |
FAcA GBdB | Acfg afcA | Bdgf ecde | f2a2 f2 ::
df | g>c (3.c.c.c a>c (3.c.c.c | bcac g>c (3.c.c.c | bcac gfef | ((3gag) ((3fed) ((3cdc) ((3BAG) |
FAcA GBdB | Acfg afcA | Bdgf ecde | f2a2 f2 :|]

